Sources/FrostedUI/Resources/Icons.xcassets/grid20.imageset/grid-20.svg

<svg width="20" height="20" viewBox="0 0 20 20" fill="none" xmlns="http://www.w3.org/2000/svg" data-fui-icon="true">
  <path
    d="M6.70996 11C7.97469 11 9 12.0253 9 13.29V15.71C9 16.9747 7.97469 18 6.70996 18H4.29004C3.02531 18 2 16.9747 2 15.71V13.29C2 12.0253 3.02531 11 4.29004 11H6.70996ZM15.71 11C16.9747 11 18 12.0253 18 13.29V15.71C18 16.9747 16.9747 18 15.71 18H13.29C12.0253 18 11 16.9747 11 15.71V13.29C11 12.0253 12.0253 11 13.29 11H15.71ZM4.29004 12.5C3.85373 12.5 3.5 12.8537 3.5 13.29V15.71C3.5 16.1463 3.85373 16.5 4.29004 16.5H6.70996C7.14627 16.5 7.5 16.1463 7.5 15.71V13.29C7.5 12.8537 7.14627 12.5 6.70996 12.5H4.29004ZM13.29 12.5C12.8537 12.5 12.5 12.8537 12.5 13.29V15.71C12.5 16.1463 12.8537 16.5 13.29 16.5H15.71C16.1463 16.5 16.5 16.1463 16.5 15.71V13.29C16.5 12.8537 16.1463 12.5 15.71 12.5H13.29ZM6.70996 2C7.97469 2 9 3.02531 9 4.29004V6.70996C9 7.97469 7.97469 9 6.70996 9H4.29004C3.02531 9 2 7.97469 2 6.70996V4.29004C2 3.02531 3.02531 2 4.29004 2H6.70996ZM15.71 2C16.9747 2 18 3.02531 18 4.29004V6.70996C18 7.97469 16.9747 9 15.71 9H13.29C12.0253 9 11 7.97469 11 6.70996V4.29004C11 3.02531 12.0253 2 13.29 2H15.71ZM4.29004 3.5C3.85373 3.5 3.5 3.85373 3.5 4.29004V6.70996C3.5 7.14627 3.85373 7.5 4.29004 7.5H6.70996C7.14627 7.5 7.5 7.14627 7.5 6.70996V4.29004C7.5 3.85373 7.14627 3.5 6.70996 3.5H4.29004ZM13.29 3.5C12.8537 3.5 12.5 3.85373 12.5 4.29004V6.70996C12.5 7.14627 12.8537 7.5 13.29 7.5H15.71C16.1463 7.5 16.5 7.14627 16.5 6.70996V4.29004C16.5 3.85373 16.1463 3.5 15.71 3.5H13.29Z"
    fill="currentColor"
  />
</svg>

<svg xmlns="http://www.w3.org/2000/svg" width="20" height="20" fill="none" data-fui-icon="true" viewBox="0 0 20 20"><path fill="currentColor" d="M6.71 11A2.29 2.29 0 0 1 9 13.29v2.42A2.29 2.29 0 0 1 6.71 18H4.29A2.29 2.29 0 0 1 2 15.71v-2.42A2.29 2.29 0 0 1 4.29 11zm9 0A2.29 2.29 0 0 1 18 13.29v2.42A2.29 2.29 0 0 1 15.71 18h-2.42A2.29 2.29 0 0 1 11 15.71v-2.42A2.29 2.29 0 0 1 13.29 11zM4.29 12.5a.79.79 0 0 0-.79.79v2.42c0 .436.354.79.79.79h2.42a.79.79 0 0 0 .79-.79v-2.42a.79.79 0 0 0-.79-.79zm9 0a.79.79 0 0 0-.79.79v2.42c0 .436.354.79.79.79h2.42a.79.79 0 0 0 .79-.79v-2.42a.79.79 0 0 0-.79-.79zM6.71 2A2.29 2.29 0 0 1 9 4.29v2.42A2.29 2.29 0 0 1 6.71 9H4.29A2.29 2.29 0 0 1 2 6.71V4.29A2.29 2.29 0 0 1 4.29 2zm9 0A2.29 2.29 0 0 1 18 4.29v2.42A2.29 2.29 0 0 1 15.71 9h-2.42A2.29 2.29 0 0 1 11 6.71V4.29A2.29 2.29 0 0 1 13.29 2zM4.29 3.5a.79.79 0 0 0-.79.79v2.42c0 .436.354.79.79.79h2.42a.79.79 0 0 0 .79-.79V4.29a.79.79 0 0 0-.79-.79zm9 0a.79.79 0 0 0-.79.79v2.42c0 .436.354.79.79.79h2.42a.79.79 0 0 0 .79-.79V4.29a.79.79 0 0 0-.79-.79z"/></svg>
